images/milestone_1.svg

<?xml version="1.0" encoding="utf-8"?>
<!-- Generator: Adobe Illustrator 16.0.0, SVG Export Plug-In . SVG Version: 6.00 Build 0)  -->
<!DOCTYPE svg PUBLIC "-//W3C//DTD SVG 1.1//EN" "http://www.w3.org/Graphics/SVG/1.1/DTD/svg11.dtd">
<svg version="1.1" id="Layer_1" xmlns="http://www.w3.org/2000/svg" xmlns:xlink="http://www.w3.org/1999/xlink" x="0px" y="0px"
	 width="57px" height="73px" viewBox="0 0 57 73" enable-background="new 0 0 57 73" xml:space="preserve">
<g>
	<g>
		<path fill="#F47752" d="M50.046,8.013H34.013V1.615C34.013,0.723,33.284,0,32.385,0h-7.73c-0.899,0-1.628,0.723-1.628,1.615v6.398
			H6.994C3.137,8.013,0,11.125,0,14.95v21.534c0,3.826,3.137,6.937,6.994,6.937h16.033v27.965c0,0.892,0.729,1.614,1.628,1.614h7.73
			c0.899,0,1.628-0.723,1.628-1.614V43.421h16.032c3.856,0,6.994-3.111,6.994-6.937V14.95C57.039,11.125,53.901,8.013,50.046,8.013z
			 M53.783,36.484c0,2.045-1.677,3.708-3.738,3.708H6.994c-2.061,0-3.738-1.662-3.738-3.708V14.95c0-2.044,1.677-3.708,3.738-3.708
			h43.052c2.061,0,3.737,1.664,3.737,3.708V36.484L53.783,36.484z M26.282,3.229h4.475v4.784h-4.475V3.229z M30.757,69.771h-4.475
			v-26.35h4.475V69.771z"/>
		<path fill="#F47752" d="M7.421,12.971c-0.305-0.3-0.723-0.473-1.151-0.473c-0.428,0-0.849,0.173-1.151,0.473
			s-0.477,0.717-0.477,1.142c0,0.424,0.175,0.839,0.477,1.141c0.302,0.3,0.723,0.474,1.151,0.474c0.428,0,0.847-0.174,1.151-0.474
			c0.302-0.302,0.477-0.717,0.477-1.141C7.898,13.688,7.724,13.271,7.421,12.971z"/>
		<path fill="#F47752" d="M50.769,12.498c-0.427,0-0.846,0.173-1.15,0.473c-0.303,0.3-0.477,0.717-0.477,1.142
			c0,0.424,0.174,0.841,0.477,1.141c0.305,0.3,0.724,0.474,1.15,0.474c0.428,0,0.85-0.174,1.151-0.474
			c0.305-0.302,0.477-0.717,0.477-1.141c0-0.425-0.172-0.842-0.477-1.142C51.618,12.671,51.196,12.498,50.769,12.498L50.769,12.498z
			"/>
		<path fill="#F47752" d="M12.465,22.125h2.973c0.899,0,1.628-0.723,1.628-1.615c0-0.892-0.729-1.614-1.628-1.614h-2.973
			c-2.537,0-4.601,2.046-4.601,4.563c0,2.517,2.063,4.563,4.601,4.563c0.741,0,1.345,0.599,1.345,1.335
			c0,0.735-0.604,1.334-1.345,1.334H9.492c-0.898,0-1.627,0.723-1.627,1.615s0.729,1.615,1.627,1.615h2.973
			c2.537,0,4.601-2.047,4.601-4.563c0-2.517-2.063-4.564-4.601-4.564c-0.742,0-1.345-0.599-1.345-1.334
			C11.12,22.724,11.723,22.125,12.465,22.125L12.465,22.125z"/>
		<path fill="#F47752" d="M23.525,18.897h-0.714c-2.34,0-4.244,1.888-4.244,4.209v6.606c0,2.321,1.904,4.21,4.244,4.21h0.714
			c2.34,0,4.244-1.889,4.244-4.21v-6.606C27.769,20.785,25.865,18.897,23.525,18.897L23.525,18.897z M24.514,29.712
			c0,0.541-0.443,0.98-0.989,0.98h-0.714c-0.545,0-0.989-0.439-0.989-0.98v-6.606c0-0.541,0.444-0.98,0.989-0.98h0.714
			c0.545,0,0.989,0.439,0.989,0.98V29.712z"/>
		<path fill="#F47752" d="M43.597,18.897h-1.994c-0.899,0-1.629,0.722-1.629,1.614v11.796c0,0.892,0.729,1.615,1.629,1.615h1.994
			c3.077,0,5.579-2.482,5.579-5.534V24.43C49.176,21.379,46.674,18.897,43.597,18.897L43.597,18.897z M45.921,28.388
			c0,1.271-1.043,2.304-2.324,2.304h-0.367v-8.567h0.367c1.281,0,2.324,1.034,2.324,2.305V28.388z"/>
		<path fill="#F47752" d="M36.845,30.692H33.61c-0.598,0-1.084-0.482-1.084-1.075v-9.107c0-0.892-0.729-1.614-1.629-1.614
			c-0.898,0-1.627,0.722-1.627,1.614v9.107c0,2.374,1.947,4.304,4.34,4.304h3.234c0.898,0,1.627-0.723,1.627-1.615
			S37.743,30.692,36.845,30.692z"/>
	</g>
</g>
</svg>

<svg id="milestone_1" xmlns="http://www.w3.org/2000/svg" width="57.039" height="73" viewBox="0 0 57.039 73">
  <g id="Group_1" data-name="Group 1">
    <path id="Path_1" data-name="Path 1" d="M50.046,8.013H34.013v-6.4A1.622,1.622,0,0,0,32.385,0h-7.73a1.622,1.622,0,0,0-1.628,1.615v6.4H6.994A6.973,6.973,0,0,0,0,14.95V36.484a6.973,6.973,0,0,0,6.994,6.937H23.027V71.386A1.621,1.621,0,0,0,24.655,73h7.73a1.621,1.621,0,0,0,1.628-1.614V43.421H50.045a6.973,6.973,0,0,0,6.994-6.937V14.95A6.974,6.974,0,0,0,50.046,8.013Zm3.737,28.471a3.727,3.727,0,0,1-3.738,3.708H6.994a3.726,3.726,0,0,1-3.738-3.708V14.95a3.728,3.728,0,0,1,3.738-3.708H50.046a3.727,3.727,0,0,1,3.737,3.708V36.484ZM26.282,3.229h4.475V8.013H26.282Zm4.475,66.542H26.282V43.421h4.475Z" fill="#d3ae29"/>
    <path id="Path_2" data-name="Path 2" d="M7.421,12.971a1.637,1.637,0,0,0-2.3,0,1.6,1.6,0,0,0,0,2.283,1.634,1.634,0,0,0,2.3,0,1.6,1.6,0,0,0,0-2.283Z" fill="#d3ae29"/>
    <path id="Path_3" data-name="Path 3" d="M50.769,12.5a1.65,1.65,0,0,0-1.15.473,1.6,1.6,0,0,0,0,2.283,1.633,1.633,0,0,0,2.3,0,1.6,1.6,0,0,0,0-2.283,1.649,1.649,0,0,0-1.151-.473Z" fill="#d3ae29"/>
    <path id="Path_4" data-name="Path 4" d="M12.465,22.125h2.973a1.615,1.615,0,1,0,0-3.229H12.465a4.563,4.563,0,1,0,0,9.126,1.335,1.335,0,1,1,0,2.669H9.492a1.615,1.615,0,1,0,0,3.23h2.973a4.564,4.564,0,1,0,0-9.127,1.335,1.335,0,1,1,0-2.669Z" fill="#d3ae29"/>
    <path id="Path_5" data-name="Path 5" d="M23.525,18.9h-.714a4.231,4.231,0,0,0-4.244,4.209v6.606a4.232,4.232,0,0,0,4.244,4.21h.714a4.232,4.232,0,0,0,4.244-4.21V23.106A4.231,4.231,0,0,0,23.525,18.9Zm.989,10.815a.985.985,0,0,1-.989.98h-.714a.985.985,0,0,1-.989-.98V23.106a.985.985,0,0,1,.989-.98h.714a.985.985,0,0,1,.989.98Z" fill="#d3ae29"/>
    <path id="Path_6" data-name="Path 6" d="M43.6,18.9H41.6a1.622,1.622,0,0,0-1.629,1.614v11.8A1.622,1.622,0,0,0,41.6,33.922H43.6a5.562,5.562,0,0,0,5.579-5.534V24.43A5.562,5.562,0,0,0,43.6,18.9Zm2.324,9.491a2.317,2.317,0,0,1-2.324,2.3H43.23V22.125H43.6a2.317,2.317,0,0,1,2.324,2.305Z" fill="#d3ae29"/>
    <path id="Path_7" data-name="Path 7" d="M36.845,30.692H33.61a1.08,1.08,0,0,1-1.084-1.075V20.51a1.628,1.628,0,0,0-3.256,0v9.107a4.327,4.327,0,0,0,4.34,4.3h3.234a1.615,1.615,0,1,0,0-3.229Z" fill="#d3ae29"/>
  </g>
</svg>
